!!!OTL: Der Himmel.
!!!OTL-incipit: NACH KREUZ UND AUSGESTANDNEN LEIDEN
!!!ARE: Europa, Mitteleuropa, Deutschland, Koeln; Bayern
!!!SCT: Z1347
!!!TXL: @@DE
!!!YEM: Copyright 1995, estate of Helmut Schaffrath.
**kern	**text
*ICvox	*
!! Mixed meters:  4/4; 6/8
*M4/4	*
*met(c)	*
*k[f#]	*
*G:	*
!LO:TX:a:t=Der Vorſänger.	!
!LO:TX:a:t=Jn Cöln und Bayern geſungen.	!
{8d	Nach
=1	=1
4.g	Kreuʒ
8g	und
8g	ausge-
8g	.
8g	-ſtandnen
8b	.
=2	=2
4a	Lei-
4g	-den,
!LO:TX:a:t=Alle.	!
4b/	(Ja)
8r}	.
!LO:TX:a:t=Der Vorſänger.	!
{8g	er-
=3	=3
4.g	-quik-
8g	-ken
8g	uns
8g	des
8g	Himmels
8a	.
=4	=4
4e	Freuden,
4d	.
!LO:TX:a:t=Alle.	!
4a}	(Ja)
{16d	drum
16d	will
16d	ich
16d	dann
=5	=5
8a	ſin-
8g	-gen,
!LO:TX:a:t=Alle.	!
4cc#/	(Ja)
8r	.
!LO:TX:a:t=Der Vorſänger.	!
8g	von
8g	himmli-
16g	.
16g	-ſchen
=6	=6
4b/	Dingen,
4a	.
!LO:TX:a:t=Alle.	!
4.dd/}	(Ja)
!LO:TX:a:t=Der Vorſänger.	!
{16bL	die
16ccJ	.
=7	=7
*M6/8	*
8dd	ihr
8b	noch
8gg	ʒu
8ee	ko-
8cc	-ſten
8gg	einſt
=8	=8
4.dd	kriegt,
4r}	.
{8b	wenn
=9	=9
8b	ihr
8b	den
16b	al-
16b	-ten
8dd	A-
8cc	-dam
8a	aus-
=10	=10
4g	-ʒiecht.
8r	.
4r}	.
!LO:TX:a:t=Alle.	!
{16b/L	Die
16ccJ	.
=11	=11
8dd	ihr
8b	noch
8gg	ʒu
8ee	ko-
8cc	-ſten
8gg	einſt
=12	=12
4dd	kriegt,
8r	.
4r}	.
{8cc	wenn
=13	=13
8b/	ihr
8b/	den
16b/	al-
16b/	-ten
8dd/	A-
8b	-dam
8a	aus-
=14	=14
4g	-ʒiecht.
8r	.
4r}	.
==	==
!!!AGN: Zech -, Schalks - Lied, Spott - Lied, anti - klerikal
!!!ONB: ESAC (Essen Associative Code) Database: ZUCCAL
!!!AMT: irregular
!!!AIN: vox
!!!EED: Helmut Schaffrath
!!!EEV: 1.0
!!!GTL: VIII. Zech- und Schalks-Lieder.
!!!URL-scan: https://www.digitale-sammlungen.de/de/view/bsb11160573?page=634
!!!ENC: Anna Maria Matuszewska
!!!EEV: 2025/02/07
*-	*-
